X: 6
T: The Eel In The Sink
R: reel
M: 4/4
L: 1/8
K: Amix
|e2AB cdec|d2 BGdG (3Bcd|eAAB cdef|gedB eA A2|
e2AB cdec|d2 BGdG (3Bcd|eAAB cdef|gedB eA A2||
|a2ea aged|(3Bcd ef g3g|a2ea agab|gedB eA A2|
a2ea aged|(3Bcd ef g3g|afge fdef|(3gfe dB BA A2||


Tune 1446	Setting 14831

